16x16/apps/application-vnd.iccprofile.svg

<svg xmlns="http://www.w3.org/2000/svg" width="16" height="16" version="1">
 <ellipse style="fill:#278df2" cx="8.5" cy="8" rx="6.514" ry="6.4"/>
 <ellipse id="ellipse8" style="fill:#34e0c4" cx="11.153" cy="-7.329" rx="3.616" ry="4.054" transform="matrix(0.50665548,0.86214861,-0.86981732,0.49337392,0,0)"/>
 <ellipse id="ellipse10" style="fill:#ffc107" cx="8.5" cy="12" rx="3.664" ry="4"/>
 <ellipse id="ellipse14" style="fill:#fb8300" cx="11.153" cy=".779" rx="3.616" ry="4.054" transform="matrix(0.50665548,0.86214861,-0.86981732,0.49337392,0,0)"/>
 <ellipse id="ellipse18" style="fill:#fa3e30" cx="2.766" cy="7.329" rx="3.616" ry="4.054" transform="matrix(-0.50665548,0.86214861,0.86981732,0.49337392,0,0)"/>
 <path style="fill:#a544c9" d="M 8.4995347,0 A 3.6643229,4 0 0 0 4.8352116,4 3.6643229,4 0 0 0 8.4995347,8 3.6141143,4.0555696 63.838713 0 1 10.193329,2.8820312 3.6141143,4.0555696 63.838713 0 1 11.827484,2.3367188 3.6643229,4 0 0 0 8.4995347,0 Z m 0,8 A 3.6643229,4 0 0 0 11.98255,5.2335936 3.6643229,4 0 0 1 11.490315,6.3015624 4.0555696,3.6141143 26.161287 0 0 8.4995347,8 Z M 11.98255,5.2335936 A 3.6643229,4 0 0 0 12.07082,4.8804688 3.6643229,4 0 0 1 11.98255,5.2335936 Z M 11.870426,2.4429688 a 3.6643229,4 0 0 1 0.122461,0.3648436 3.6643229,4 0 0 0 -0.122461,-0.3648436 z m 0.128028,0.38125 a 3.6643229,4 0 0 1 0.07475,0.316406 3.6643229,4 0 0 0 -0.07475,-0.316406 z m 0.09542,0.4140624 a 3.6643229,4 0 0 1 0.03578,0.2554688 3.6643229,4 0 0 0 -0.03578,-0.2554688 z m 0.05328,0.4148436 A 3.6643229,4 0 0 1 12.163857,4 3.6643229,4 0 0 0 12.14716,3.6531248 Z m 0.0087,0.5234376 a 3.6643229,4 0 0 1 -0.0159,0.2625 3.6643229,4 0 0 0 0.0159,-0.2625 z M 12.127275,4.53125 a 3.6643229,4 0 0 1 -0.04771,0.3101564 3.6643229,4 0 0 0 0.04771,-0.3101564 z"/>
 <path style="fill:#009688" d="M 11.546775,6.2976564 C 10.244634,6.3338492 9.1043679,6.9708596 8.4995347,8 c 2.0237493,0 3.6643223,1.7908608 3.6643223,4 -0.0014,0.574359 -0.116154,1.141646 -0.336373,1.663281 C 13.378854,13.867564 14.83358,13.217821 15.551448,12 16.563533,10.278106 15.805168,7.9866324 13.857652,6.8820312 13.147094,6.479136 12.341616,6.2754464 11.546775,6.2976564 Z m 0.280709,7.3656246 z M 8.4995347,8 Z"/>
 <path id="ellipse980" style="fill:#03a9f4" d="M 12.504605,2.2976562 A 3.6141143,4.0555696 63.838713 0 0 10.193529,2.882422 3.6141143,4.0555696 63.838713 0 0 8.4997333,7.9998048 C 9.104602,6.9708016 10.244733,6.3338464 11.546775,6.297656 c 0.794841,-0.022208 1.600319,0.18148 2.310877,0.5843752 0.523507,0.2969252 0.960199,0.6801232 1.300565,1.1144532 A 3.6141143,4.0555696 63.838713 0 0 15.551646,4 3.6141143,4.0555696 63.838713 0 0 12.504605,2.2976562 Z M 8.4997333,8 A 3.6141143,4.0555696 63.838713 0 0 11.495882,9.6986328 C 10.832666,8.671548 9.7383658,8.000072 8.4997333,8 Z"/>
 <path style="fill:#ffc107" d="m 8.4997333,7.9998048 c -6.3156115,6.4001302 -3.1578059,3.2000652 0,0 z m 0,1.952e-4 C 9.1426625,9.2935516 10.248243,9.8536288 11.495882,9.6986328 10.832666,8.671548 9.7383658,8.000072 8.4997333,8 Z"/>
</svg>

<svg xmlns="http://www.w3.org/2000/svg" width="16" height="16" version="1"><ellipse style="fill:#278df2" cx="8.5" cy="8" rx="6.514" ry="6.4"/><ellipse style="fill:#34e0c4" cx="11.153" cy="-7.329" rx="3.616" ry="4.054" transform="matrix(.50666 .86215 -.86982 .49337 0 0)"/><ellipse style="fill:#ffc107" cx="8.5" cy="12" rx="3.664" ry="4"/><ellipse style="fill:#fb8300" cx="11.153" cy=".779" rx="3.616" ry="4.054" transform="matrix(.50666 .86215 -.86982 .49337 0 0)"/><ellipse style="fill:#fa3e30" cx="2.766" cy="7.329" rx="3.616" ry="4.054" transform="matrix(-.50666 .86215 .86982 .49337 0 0)"/><path style="fill:#a544c9" d="M8.5 0a3.664 4 0 0 0-3.665 4A3.664 4 0 0 0 8.5 8a3.614 4.056 63.839 0 1 1.693-5.118 3.614 4.056 63.839 0 1 1.634-.545A3.664 4 0 0 0 8.5 0zm0 8a3.664 4 0 0 0 3.483-2.766 3.664 4 0 0 1-.493 1.068A4.056 3.614 26.161 0 0 8.5 8zm3.483-2.766a3.664 4 0 0 0 .088-.354 3.664 4 0 0 1-.088.354zm-.113-2.791a3.664 4 0 0 1 .123.365 3.664 4 0 0 0-.123-.365zm.128.381a3.664 4 0 0 1 .075.317 3.664 4 0 0 0-.075-.317zm.096.414a3.664 4 0 0 1 .036.256 3.664 4 0 0 0-.036-.256zm.053.415a3.664 4 0 0 1 .017.347 3.664 4 0 0 0-.017-.347zm.009.524a3.664 4 0 0 1-.016.262 3.664 4 0 0 0 .016-.262zm-.029.354a3.664 4 0 0 1-.047.31 3.664 4 0 0 0 .047-.31z"/><path style="fill:#009688" d="M11.547 6.298C10.245 6.334 9.104 6.97 8.5 8c2.023 0 3.664 1.79 3.664 4a4.31 4.31 0 0 1-.337 1.663c1.552.205 3.007-.445 3.724-1.663 1.013-1.722.254-4.013-1.693-5.118a4.457 4.457 0 0 0-2.311-.584zm.28 7.365zM8.5 8z"/><path style="fill:#03a9f4" d="M12.505 2.298a3.614 4.056 63.839 0 0-2.311.584A3.614 4.056 63.839 0 0 8.5 8c.605-1.03 1.745-1.666 3.047-1.702.795-.023 1.6.181 2.31.584.524.297.96.68 1.301 1.114A3.614 4.056 63.839 0 0 15.552 4a3.614 4.056 63.839 0 0-3.047-1.702zM8.5 8a3.614 4.056 63.839 0 0 2.996 1.699C10.833 8.672 9.738 8 8.5 8z"/><path style="fill:#ffc107" d="M8.5 8c-6.316 6.4-3.158 3.2 0 0zm0 0c.643 1.294 1.748 1.854 2.996 1.699C10.833 8.672 9.738 8 8.5 8z"/></svg>
